X: 696
T: Ey Bâd-ı Sabâ
C: Suphi Ziya Özbekkan
O: Turkey
F: http://compmusic.upf.edu/node/140
N: saba--nakis--yuruksemai--ey_bad-i--suphi_ziya_ozbekkan
N: makam= saba
N: form= nakis
N: usul= yuruksemai = 6/8
M: 6/8
L: 1/16
K: C _2/4B _3/4d  
Q: 1/4=102
%%MIDI tuningsystem comma53
c4c4 c4c4 c8  | G8 A4B4 c8  | c4d4 d4d2c2 c8  | \
w:  Ey  bâd_ ı  sa bâ   |  yâr  i le  vus  |  lat  *  ne  za *  man  | 
B4c4 B4A12  | A6B2 c16  | 
w:  dır    |  vus *  lat   | 
d4e4 e2f2e2d2 d4c4  | c4d4 c2B2A8B2c2  | \
w:   |  ne  za man  | 
B4c16z4  | c4f4 f4f2e2 f8  | 
w:  dır    |  Bir  ker re  su *  âl   | 
e2f2g2_7/8a2 g2f2f2e2 e2d2d2c2  | \
w:  ey *  *  *  le  *  ki  *  ruh  | 
c4d4 d4d2c2 c8  | B4c4 B4A4 B8  | 
w:  sat  *  ne  za *  man  |  dır    | 
c4c2d2 e4e2f2 e2d4c2  | c2d2d2c2 c2BAB8z4  | \
w:  ruh *  *  sat   |   | 
B4c4 c2B2B2c2 B2A2G2A2  | 
w:  ne  za man  | 
G4A16z4  | G4c16z4  | e2f2g16z4  | c4c8d4 c2BAB2c2  | \
w:  dır    |  Gel   |  gel   |  gel  iş ve bâ  | 
B4c16z4  | 
w:  zım   | 
e4f16z4  | e2f2g2_7/8a2 a2g2g2f2 f2fee4  | \
w:  gel   |  gel   | 
e4_7/8a2g2 g2a2g2f2 e2f2e2d2  | 
w:  gel  dil *  *  *  ne *  vâ  | 
c2d2e16z4  | _7/8a4g4 f4e8z4  | f4e4 d4c8z4  | \
w:  zım    |  Yâr   |  yâr   | 
c4e2d2 d2e2d2c2 c6d2  | 
w:  gel  ser *  *  *  vi *  nâ  | 
d2c2c2BA B4B4 B4z4  | B4c4 B4A12  | G4A4 B4c2d2 c2BAB4  | 
w:  zım   |  dost   |  dost   | 
d2c2c2d2 c2d2c2B2 B2A2G2A2  | A2c4BA A6=d2 e4z4  | \
w:  gel  *  çâ *  *  *  re *  sâ  |  zım   *  *  *  *  SAZ  | 
=d4d4 e4e4 e6z2  | 
w:  Dağ  ol sa  bi le   | 
e4e2^3/4f2 g4=f2e2 =d6z2  | ^3/4f6e2 f4g2e2 e6=d2  | \
w:  ey *  *  le ye *  mez   |  hic *  re  ta *  ham  | 
=d4e8d2c2 c6z2  | 
w:  mül    | 
c4=d16z4  | =d4e16^3/4fef2  | =d8 a4g2^2/4f2 f2{g}e2{g}f2e2  | \
w:  ah   |  ah   |  hic re  ta *  ham  | 
e16-e4z4  | a2g2g2f2 f4f2e2 f6z2  | 
w:  mül    |  Taş  *  ol *  sa  e *  rir   | 
e2f2g2_7/8a2 g2f2f2e2 e2d2d2c2  | \
w:  â *  *  *  teş_ *  i  *  has  | 
c4d4 d4d2c2 c8  | B4c4 B4A4 B8  | 
w:  ret  *  ne  za *  man  |  dır    | 
c6d2 e4e2f2 e2d4c2  | c2d2d2c2 c2BAB4 B4z4  | \
w:  has *  ret   |   | 
B4c4 c2B2B2c2 B3AG2A2  | 
w:  ne  za man  | 
G4A8A8z4  | G4c16z4  | e2f2g16z4  | c4c8d4 c2BAB2c2  | \
w:  dır    |  Gel   |  gel   |  gel  iş ve bâ  | 
B4c16z4  | 
w:  zım   | 
e4f16z4  | e2f2g2_7/8a2 a2g2g2f2 f2fee4  | \
w:  gel   |  gel   | 
e4_7/8a2g2 g2a2g2f2 e2f2e2d2  | 
w:  gel  dil *  *  *  ne *  vâ  | 
c2d2e16z4  | _7/8a4g4 f4e8z4  | f4e4 d4c8z4  | \
w:  zım    |  Yâr   |  yâr   | 
c4e2d2 d2e2d2c2 c6d2  | 
w:  gel  ser *  *  *  vi *  nâ  | 
d2c2c2BA B4B4 B4z4  | B4c4 B4A12  | G4A4 B4c2d2 c2BAB4  | 
w:  zım   |  dost   |  dost   | 
d2c2c2d2 c2d2c2B2 B2A2G2A2  | A2c4BA A6|
w:  gel  *  çâ *  *  *  re *  sâ  |  zım    | 


